X: 5812
T: Calendar Boys
R: reel
M: 4/4
K: Gmajor
"G"G2G/E/D D/E/D D/E/G|B2BA/G/ G/A/A/G/ A/B/ d|"C"e2 e>d dB B/A/G|GDc/B> "D"A4 A/B/A|
"G"G2G/A/B D/E/D D/E/G|B2BA/G/ G/A/A/G/ A/B/ d|"C"eg gf/e/ d/B> BA/ G|"D"AD A/B/A "C"G4|
"G"G2G>F EDD/E/G|B2BA/G/ G/A/A/G/ A/B/ d|"C"eg gf/e/ "G"d/B> BA/G|dd c<B "D"A2 A/B/A|
"G"G2 G/E/D "D"A2A/B/ (3c/B/A/|"G"B2B/c/d "C"e2e/f/g/e/|"G"d<G c<B "D"A2A/B/A|"C"G4G dde||
"C"c2c>B"D"AD A/B/A|"G"d2 d A/G/ G/A/A/G/ A/B/ d|"C"e2 ee/d/ "G"dB B/A/G|dd c<B"D"A2 A/B/A|
"G"G2G/A/B D/E/ DD/E/G|B2B A/G/ G/A/A/G/ A/B/ d|"C"eg gf/e/ "G"d/B> BA/G|"D"AD A/B/A "G"Gdde|
"C"c2c>B"D"AD A/B/A|"G"d2 d `A/G/ A A/G/ A/B/d|"C"e g2 f/e/ "G"d/B> BA/G|dd c<B"D"A2 A/B/A|
"Em"G2 G/E/D "D"A2A/B/ (3/2c/B/A/|"G"B2B/c/d/G/ "C"e2e/f/g/e/|"G"d<G c<B "D"A2A/B/A|"C"G4"G"G4|

